!!!OTL: Der verkleidete Markgrafensohn Es wollt' ein Koenigssohn freien gehn,
!!!ARE: Europa, Mitteleuropa, Deutschland / France, Lothringen, Gelmingen
!!!YOR: 1, S. 52
!!    1930 aufgezeichnet (17. Jh. ?)
!!!SCT: Q0006B
!!!YEM: Copyright 1995, estate of Helmut Schaffrath.
**kern
*ICvox
*Ivox
*M3/2
*k[f#]
*G:
{4dd
=1
4dd
4g
2a
4a
4b
=2
4cc
4a
2b
4r}
{4a
=3
4g
4b
2a
4b
4g
=4
2f#
2g
4r}
{4g
=5
4b
8g
8g
2a
4a
4b
=6
4cc
4a
2b
4r}
{4a
=7
4g
4b
2a
4b
4g
=8
2f#
2g
4r}
==
!!!AGN: Ballade, Braut - Werbung
!!!ONB: ESAC (Essen Associative Code) Database: BALLADE
!!!AMT: simple triple
!!!AIN: vox
!!!EED: Helmut Schaffrath
!!!EEV: 1.0
*-
